icons/ticket-star.svg

<svg xmlns="http://www.w3.org/2000/svg" width="24" height="24" viewBox="0 0 24 24">
  <path d="M20,4 C21.5976809,4 22.9036609,5.24891996 22.9949073,6.82372721 L23,7 L23,10 L22,10 C20.8954305,10 20,10.8954305 20,12 C20,13.0543618 20.8158778,13.9181651 21.8507377,13.9945143 L22,14 L23,14 L23,17 C23,18.5976809 21.75108,19.9036609 20.1762728,19.9949073 L20,20 L4,20 C2.40231912,20 1.09633912,18.75108 1.00509269,17.1762728 L1,17 L1,14 L2,14 C3.1045695,14 4,13.1045695 4,12 C4,10.9456382 3.18412221,10.0818349 2.14926234,10.0054857 L2,10 L1,10 L1,7 C1,5.40231912 2.24891996,4.09633912 3.82372721,4.00509269 L4,4 L20,4 Z M12.2212829,8.18140769 C11.973656,8.05919655 11.6738431,8.16086605 11.551632,8.40849288 L11.551632,8.40849288 L10.6774832,10.1797118 L8.72282709,10.4637399 C8.61400857,10.4795522 8.51343737,10.5307958 8.43668307,10.6095376 C8.24393246,10.8072794 8.24797861,11.123836 8.4457204,11.3165866 L8.4457204,11.3165866 L9.86012284,12.6952882 L9.52622772,14.6420462 C9.50763929,14.750425 9.52529663,14.861909 9.57646617,14.9592393 C9.70496657,15.2036616 10.0072801,15.2976348 10.2517024,15.1691344 L10.2517024,15.1691344 L12,14.25 L13.7482976,15.1691344 C13.8456278,15.220304 13.9571118,15.2379613 14.0654907,15.2193729 C14.3376589,15.1726924 14.5204528,14.9142144 14.4737723,14.6420462 L14.4737723,14.6420462 L14.1398772,12.6952882 L15.5542796,11.3165866 C15.6330214,11.2398323 15.684265,11.1392611 15.7000773,11.0304426 C15.7397861,10.7571702 15.5504453,10.5034487 15.2771729,10.4637399 L15.2771729,10.4637399 L13.3225168,10.1797118 L12.448368,8.40849288 C12.3997029,8.30988657 12.3198892,8.23007281 12.2212829,8.18140769 Z"/>
</svg>

<svg xmlns="http://www.w3.org/2000/svg" viewBox="0 0 24 24">
  <path d="M20 4a3 3 0 0 1 3 2.82V10h-1a2 2 0 0 0-.15 4H23v3a3 3 0 0 1-2.82 3H4a3 3 0 0 1-3-2.82V14h1a2 2 0 0 0 .15-4H1V7a3 3 0 0 1 2.82-3H20zm-7.78 4.18a.5.5 0 0 0-.67.23l-.87 1.77-1.96.28a.5.5 0 0 0-.27.86l1.41 1.38-.33 1.94a.5.5 0 0 0 .72.53l1.75-.92 1.75.92a.5.5 0 0 0 .72-.53l-.33-1.94 1.41-1.38a.5.5 0 0 0-.27-.86l-1.96-.28-.87-1.77a.5.5 0 0 0-.23-.23z"/>
</svg>
